!!!!SEGMENT: T134_Jan-w26p35m58-67.krn
!!!COM: Janáček, Leoš [Leo Eugen]
!!!OTL: Book II, No. 3 (13)
!!!AGN: Instrumental
!!!AGN-sub: Keyboard
!!!CNT: Czech
!!!ODT: 1911
!!!OPR: Po zarostlém chodníčku (On the Overgrown Path), Book II
!!!filename: T134_Jan-w26p35m58-67.krn
**kern	**kern	**fing	**dynam
*grp:A	*grp:B	*	*grp:A/B
*part1	*part1	*	*
*staff2	*staff1	*	*
*ICklav	*ICklav	*	*
*Ipiano	*Ipiano	*	*
*I"Piano	*I"Piano	*	*
*I'pf	*I'pf	*	*
*clefF4	*clefG2	*	*
*k[f#c#]	*k[f#c#]	*	*
*D:	*D:	*	*
*M3/8	*M3/8	*	*
=1	=1	=1	=1
!	!LO:TX:t=[[eighth-dot]=69]	!	!
!	!	!	!LO:DY:ed=brack
16r	8.gL	.	pp
16FFn\LL	.	.	.
16Cn 16Fn 16A	.	.	.
16FF	8.e-XJ	.	.
16C 16F 16A	.	.	.
16FFJJ	.	.	.
=2	=2	=2	=2
*^	*	*	*
!	!	!LO:TX:t=P:problem: Vertical Bracket needed to indicate chord grouping.	!	!
4.E-X 4.A	16r	8.dL	.	.
*	*ped	*	*	*
.	16FFnLL	.	.	.
.	16Fn	.	.	.
.	16FF	16cnL	.	.
.	16F	16B	.	.
.	16FFJJ	16cJJ)j	.	.
=3	=3	=3	=3	=3
*	*Xped	*	*	*
[4.B-X	16r	(8.b-XL	3	.
.	16FnLL	.	.	.
.	16d>-X 16fn>	.	.	.
.	16F	8.ccnJ	.	.
.	16d>- 16f>	.	.	.
.	16FJJ	.	.	.
=4	=4	=4	=4	=4
4.B-X]	16r	8.dd-XL	.	<
.	16FnLL	.	.	.
.	16d>-X 16fn>	.	.	.
.	16F	8.b-XJ	.	.
.	16d>- 16f>	.	.	.
.	16FJJ	.	.	[
=5	=5	=5	=5	=5
4.B-X	16r	8.aL	.	.
.	16FnLL	.	.	.
.	16c#X 16e	.	.	.
.	16F	16gL	.	.
.	16c# 16e	16f#X	2	.
.	16FJJ	16gJJ)	1	.
=6	=6	=6	=6	=6
!	!	!LO:S:dot	!	!
[4.d-X	16r	(8.eeL	3	.
.	16B-XLL	.	.	.
.	16g> 16b>-X	.	.	.
.	16B-	8.ff#XJ	.	<
.	16g> 16b>-	.	.	.
.	16B-JJ	.	.	.
!!linebreak:original
=7	=7	=7	=7	=7
4.d-_	16r	8.ggL	.	.
.	16B-XLL	.	.	.
.	16g> 16b>-X	.	.	.
.	16B-	8.eeJ)	1	.
.	16g> 16b>-	.	.	.
.	16B-JJ	.	.	.
=8	=8	=8	=8	=8
!	!	!	!	!
*	*	*rscale:3	*	*
4.d-]	16r	(>32%3ff#LL	.	.
.	16B-XLL	.	.	.
.	.	32%3ggJJ	.	.
.	16g> 16b>-X	.	.	.
.	16e	32%3aaLL	.	.
.	16g> 16b>-	.	.	.
.	.	32%3ff#JJ)	.	.
.	[>16eJJ	.	.	.
*	*	*rscale:1	*	*
=9	=9	=9	=9	=9
*	*	*^	*	*
!	!	!LO:S:dot	!	!	!
4.ryy	4.e]	(>16ggLL	16r	1	.
.	.	16aa	16gLL	.	.
.	.	16cccnJJ	16b-XJJ 16dd-X	.	.
*	*	*Xtuplet	*	*	*
!	!	!LO:N:vis=16	!	!	!
.	.	64%3bb-XLL	16gLL	.	.
!	!	!LO:N:vis=16	!	!	!
.	.	64%3aa	.	1	.
!	!	!LO:TX:a:B:t=4	!	!	!
.	.	.	16b- 16dd-	.	.
!	!	!LO:N:vis=16	!	!	!
.	.	64%3bb-	.	.	.
.	.	.	[16gJJ	.	.
!	!	!LO:N:vis=16	!	!	!
.	.	64%3cccJJ	.	1	.
*v	*v	*	*	*	*
=10	=10	=10	=10	=10
*	*	*^	*	*
*ped	*	*	*	*	*
!	!LO:S:dot	!	!	!	!
8%3r	4.ddd-X;)(TT	4g] 4b-X 4ee	8ryy	2	f <
!	!	!	!LO:TX:b:t=m.s.	!	!
.	.	.	8r;<	.	.
.	.	16qqcccnLL	.	1	[
.	.	)16qqddd-	.	3	.
.	.	16qqeee-X	.	4	.
.	.	16qqddd-	.	.	.
.	.	16qqbb-X	.	.	.
.	.	16qqgg	.	1	.
.	.	16qqeen	.	2	.
!	!	!LO:TX:a:B:t=11	!	!	!
.	.	16qqdd-X	.	1	.
.	.	16qqccn	.	2	.
.	.	16qqb-	.	3	.
.	.	16qqenJJ	.	5	.
.	.	8ryy	8ryy	.	.
*	*v	*v	*v	*	*
=	=	=	=
*-	*-	*-	*-
!!!system-decoration: [({(s1,s2)})]
!!!RDF**kern: > = above
!!!RDF**kern: < = below
!!!RDF**kern: j = marked note, color="magenta", text="extra)"
!!!EED2: Rafael Laurindo
!!!EEV2: 2022/03/10
!!!EED3: Bryan Bell
!!!Suter_Work_ID: Jan-26
!!!Suter_Example_Number: 134
!!!Suter_Example_ID: Jan-26/35/58-67
!!!Premiere_Location: unknown
!!!Other_Tsigs: none
!!!Full_Unit_Duration: 2:51
!!!First_Publication_Year: 1942
!!!First_Public_Performance_Year: unknown
!!!Example_Total_Measures: 10
!!!Example_Timestamp_Duration: 12
!!!Example_Start_Tsig_Type: simple triple
!!!Example_Start_Tsig_Mean_Beat_Rate: 69
!!!Example_Start_Tsig_Beat_Rate: 69
!!!Example_Start_Tsig_Beat: eighth
!!!Example_Start_Tsig: 3/8
!!!Example_Start_Timestamp: 1:43
!!!Example_Start_Tempo_Expression: [Più mosso]
!!!Example_Start_Notated_Beat_Rate: [69]
!!!Example_Start_Notated_Beat: [dotted-eighth]
!!!Example_Start_Measure: 58
!!!Example_Metadata_Validated: Y
!!!Example_End_Timestamp: 1:55
!!!Example_End_Measure: 67
!!!Example_Dataset: T
!!!Editorial_Comments: Example Start Notated Beat and Example Start Notated Beat Rate [dotted-eighth=69] based on most recent notated beat rate (SWFU, m. 1). Example Start Tempo Expression [Più mosso] based on most recent notated tempo expression (SWFU, m. 1). The parenthetical number 13 in the SWFU title take Book I into consideration (diplomatic data).
!!!Death_Place: Moravaská Ostrava,Czech Republic
!!!Death_Date: 12-Aug-1928
!!!Changing_Tsig: no
!!!Birth_Place: Hukvaldy,Moravia
!!!Birth_Date: 3-Jul-1854
!!!Audio_Example_Quarter_Note_Tempo:
!!!Audio_Example_Duration:
!!!EEV3: 2022/10/18
